X:127
T:Clap or the Princess Waltz. Le4.127
M:3/4
L:1/4
Q:1/4=100
B:L.Leadley MS#4 c1850
Z:Village Music Project, 2016 Ruairidh Greig
K:F
CF>G|A2B|A3|Gz2|CE>F|G2A|G3|Fzz|
FA>B|c2d|c3|B3|AC>A|(A2G)|F3|Fzz|
.c.e>.f|(a2b)|(a3|g)zz|ce>f|(g2a)|g3|fzz|
fa>b|(c'2d')|(c'3|b3)|ac>a|(a2g)|(f3|f)||
c'=b|(=bd)g|(a2b)|(ac)f|(b2a)|(gB)c|(a2g)|.f/.g/.a/e/(f/d/)|.c.c'=b|
(bd)g|(c'2b)|(ac)g|(b2a)|(gB)e|(a2g)|f3||
.f.a.'c'|(e'/d'/c'/d'/e'/d'/)|.g.a.b|(d'/c'/=b/c'/d'/c'/)|
.f.g.a.|(c'/b/a/b/c'/b/)|g(c'>b)|(^g2a)|
.f.a.c'|(e'/d'/=c'/d'/e'/d'/)|(a/g/^f/g/a/b/)|(d'/c'/b/c'/d'/c'/)|
(g/f/e/f/g/a/)|(c'/=b/_b/a/).g/.f/|.e/.d/.c/.B/.A/.G/|FAc|1f:|2f/zzH|]

